icons/arrow-top-right.svg

<svg xmlns="http://www.w3.org/2000/svg" width="24" height="24" viewBox="0 0 24 24">
  <path d="M19,4 L19.0193545,4.00018615 C19.0409987,4.00060253 19.062632,4.00171744 19.0842176,4.00353089 L19,4 C19.0523658,4 19.1037915,4.00402505 19.1539846,4.01178265 C19.1611342,4.01296161 19.1687893,4.01423509 19.1764315,4.01559786 L19.1988177,4.01976438 C19.2231682,4.02467654 19.2471983,4.03047332 19.2708729,4.03711974 C19.2847689,4.04109725 19.2984943,4.04526694 19.3121425,4.04973809 C19.3317977,4.05612249 19.3515792,4.06331574 19.3710585,4.07110396 C19.3887956,4.07819642 19.4060985,4.08567905 19.4232215,4.09367336 C19.4438914,4.10337664 19.4642939,4.11379392 19.484277,4.12487577 C19.4963944,4.13149883 19.5086131,4.13860692 19.5207088,4.14599545 C19.546275,4.1617187 19.5711307,4.17849009 19.5951593,4.19631351 C19.6012086,4.20071786 19.6070733,4.20517454 19.6128994,4.20970461 L19.6148064,4.21126487 L19.625449,4.21968877 C19.6854251,4.26782388 19.7397335,4.32273092 19.787214,4.38324992 L19.7071068,4.29289322 C19.7425008,4.32828727 19.774687,4.36567442 19.8036654,4.40469339 C19.8215099,4.42886931 19.8382813,4.45372505 19.8539326,4.47933981 C19.8613931,4.49138689 19.8685012,4.50360556 19.8753288,4.5159379 C19.8862061,4.53570605 19.8966234,4.5561086 19.9063462,4.57690085 C19.914321,4.5939015 19.9218036,4.61120435 19.9287745,4.62866398 C19.9366843,4.6484208 19.9438775,4.66820232 19.9504533,4.68826359 C19.9552713,4.70314866 19.9599023,4.71853672 19.9641549,4.73400703 C19.9701664,4.75556352 19.9753602,4.77725392 19.9798348,4.7992059 C19.9832978,4.81662474 19.9863719,4.83405099 19.9889822,4.85153313 C19.9905825,4.86176411 19.9920139,4.87254508 19.9932723,4.88337887 L19.996384,4.91477577 C19.997855,4.93207691 19.9988772,4.94940903 19.9994506,4.96675322 L20,5 L20,13 C20,13.5522847 19.5522847,14 19,14 C18.4871642,14 18.0644928,13.6139598 18.0067277,13.1166211 L18,13 L18,7.414 L5.70710678,19.7071068 C5.31658249,20.0976311 4.68341751,20.0976311 4.29289322,19.7071068 C3.93240926,19.3466228 3.90467972,18.7793918 4.20970461,18.3871006 L4.29289322,18.2928932 L16.585,5.999 L11,6 C10.4477153,6 10,5.55228475 10,5 C10,4.48716416 10.3860402,4.06449284 10.8833789,4.00672773 L11,4 L19,4 Z"/>
</svg>

<svg xmlns="http://www.w3.org/2000/svg" viewBox="0 0 24 24">
  <path d="M19 4h.02a1 1 0 0 1 .06 0H19a1 1 0 0 1 .18.02h.02a1 1 0 0 1 .41.19l.02.01a1 1 0 0 1 .16.16l-.08-.09a1 1 0 0 1 .28.6v.02a1 1 0 0 1 0 .06L20 5v8a1 1 0 0 1-2 .12V7.4L5.7 19.71a1 1 0 0 1-1.49-1.32l.08-.1L16.6 6H11a1 1 0 0 1-.12-2H19z"/>
</svg>
